packages/core/src/svgs/tt.svg

<svg width="24" height="24" viewBox="0 0 24 24" fill="none" xmlns="http://www.w3.org/2000/svg">
<g clip-path="url(#clip0_31_20060)">
<path d="M0 0H24V24H0V0Z" fill="#F0F3FA"/>
<path d="M8.13016 18.1715L11.8759 12.2358C11.9316 12.1458 11.8673 12.0001 11.7602 12.0001H8.48159C8.21588 12.0001 8.05302 11.7386 8.19445 11.5115L12.2273 4.71864L12.0002 4.71436C10.4195 4.71487 8.88179 5.22945 7.61916 6.18046C6.35654 7.13147 5.43746 8.46732 5.00058 9.98646C4.56371 11.5056 4.63275 13.1256 5.19728 14.6021C5.76181 16.0785 6.79121 17.3314 8.13016 18.1715ZM11.7859 19.2858H12.0002C13.5816 19.2871 15.1205 18.7739 16.3846 17.8236C17.6486 16.8732 18.5692 15.5374 19.0071 14.0178C19.4451 12.4982 19.3767 10.8774 18.8124 9.40007C18.248 7.92275 17.2183 6.66918 15.8787 5.82864L12.283 11.7901C12.2273 11.8844 12.2916 12.0001 12.3987 12.0001H15.9216C16.1873 12.0001 16.3844 12.3258 16.243 12.5529L11.7816 19.2815L11.7859 19.2858Z" fill="url(#paint0_linear_31_20060)"/>
</g>
<defs>
<linearGradient id="paint0_linear_31_20060" x1="12.0002" y1="5.14293" x2="12.0002" y2="18.8572" gradientUnits="userSpaceOnUse">
<stop stop-color="#06FCD7"/>
<stop offset="1" stop-color="#0502DA"/>
</linearGradient>
<clipPath id="clip0_31_20060">
<rect width="24" height="24" fill="white"/>
</clipPath>
</defs>
</svg>

<svg xmlns="http://www.w3.org/2000/svg" width="24" height="24" fill="none" viewBox="0 0 24 24"><g clip-path="url(#a)"><path fill="#F0F3FA" d="M0 0h24v24H0z"/><path fill="url(#b)" d="m8.13 18.172 3.746-5.936c.056-.09-.009-.236-.116-.236H8.482c-.266 0-.429-.261-.288-.489l4.033-6.792L12 4.714a7.286 7.286 0 0 0-3.87 13.458m3.656 1.114H12A7.286 7.286 0 0 0 15.88 5.829l-3.596 5.961a.137.137 0 0 0 .116.21h3.523c.265 0 .462.326.321.553l-4.461 6.729z"/></g><defs><linearGradient id="b" x1="12" x2="12" y1="5.143" y2="18.857" gradientUnits="userSpaceOnUse"><stop stop-color="#06FCD7"/><stop offset="1" stop-color="#0502DA"/></linearGradient><clipPath id="a"><path fill="#fff" d="M0 0h24v24H0z"/></clipPath></defs></svg>
